X:1
T:James Gibb editions
T:Heraclitus - Stanford
T:#
%%score [ 1 2 3 4 ]
L:1/8
Q:1/4=90
M:4/4
K:Eb
V:1 treble nm="Soprano" snm="S"
V:2 treble nm="Alto" snm="A"
V:3 treble-8 nm="Tenor" snm="T"
V:4 bass nm="Bass" snm="B"
V:1
!mf!"^William Johnson Cory\n(1823-92)""^Heraclitus, Op.110 no.4""^Charles Villiers Stanford\n(1852-1924)""^andante" e2 | %1
w: They|
 d3 B c3 B |!>(! B2 G2!>)! z2!p! B2 | E2 G2 !tenuto!F3 E | !tenuto!F6!mf! f2 | e2 c2 !>!d3 c | %6
w: told me, He- ra-|cli- tus, They|told me you were|dead; They|brought me bit- ter|
 c3 =B d2 c2 | !>!_B2 A2!>(! G3 E | F6!>)!"^molto teneramente"!<(! c2!<)! | %9
w: news to hear and|bit- ter tears to|shed. I|
!>(! (c2!>)! F2) z (.F.G.A) | G2 B2 z2!<(! c2!<)! |!>(! c3 F!>)! (F2!<(! G)A!<)! | B6!f! B2 | %13
w: wept * as I re-|mem- bered, How|of- ten you * and|I Had|
 g3 g f2 c2 |!>(! !>!c2 G2!>)! z2!p! B2 | E2 G2 E3 C | !fermata!E6 ||!pp! e2 | d3 B c2 B2 | %19
w: tired the sun with|talk- ing and|sent him down the|sky.|And|now that thou art|
 B2 G2 z2 B2 | E2 G2 F3 E | F6 z .f | e2 .c.c (d3 c) | .c.=B z2!>(! (d3 c)!>)! | %24
w: ly- ing, my|dear old Ca- rian|guest, A|hand- ful of grey *|ash- es, long, *|
 !courtesy!_B3 G G2 F2 | E6!pp! c2- | c2 FF (F2 G)A | G2"^cresc.""^poco" B4 e2 | e3 F (F2 G)A | %29
w: long a- go at|rest, Still|* are thy plea\- * sant|voi- ces, Thy|night- in- gales, * a-|
!<(! B6!<)! B2 |!f! g3 g f2 c2 | !>!c3!>(! G!>(! G4-!>)! | G4!>)! z2!p!!<(! B2 | c4!<)! z2!pp! B2 | %34
w: wake, For|Death, he ta- keth|all a- way,|* but|them he|
 E4 F4 | !fermata!E8 |] %36
w: can- not|take.|
V:2
!mf! B2 | B3 B A3 A |!>(! G2 G2!>)! z2!p! D2 | E2 E2 !tenuto!C3 C | !tenuto!C6!mf! B2 | %5
w: They|told me. He- ra-|cli- tus, They|told me you were|dead; They|
 B2 A2 !>!A3 A | A3 A G2 G2 | !>!F2 F2!>(! F3 E | E8!>)! | z2!p!!<(! E2!<)!!>(! (E2!>)! D2) | %10
w: brought me bit- ter|news to hear and|bit- ter tears to|shed.|I wept, *|
 z (.G.F.D) F2 E2 | z2 E2 E3 D |!<(! F2 E2 G2!<)!!f! F2 | B3 B =A2 F2 |!>(! E4!>)! E2!p! D2 | %15
w: as I re- mem- bered,|How of- ten|you and I Had|tired the sun with|talk- ing and|
 C2 D2 C3 C | !fermata!B,6 ||!pp! G2 | F2 G2 E2 D2 | E2 E2 z2 D2 | C2 D2 C3 C | D6 z .B | %22
w: sent him down the|sky.|And|now that thou art|ly- ing, my|dear old Ca- rian|guest, A|
 B2 .A.A A4 | .G.G z2!>(! G4!>)! | G3 D C2 D2 | (E2 _D2 C4) |!pp! E4 !courtesy!=D3 C | %27
w: hand- ful of grey|ash- es, long,|long a- go at|rest, * *|Still are thy|
 (B,2"^cresc.""^poco" E2) A2 G2 | F2 C2 D3 D |!<(! (F2 E2 G2)!<)! F2 |!f! B3 B A2 F2 | %31
w: voi\- * ces, Thy|night- in- gales, a-|wake, * * For|Death, he ta- keth|
 !>!G6!>(!!>(! E2 | (E2!>)!!>)! D2) z2!p!!<(! E2 | E4!<)! z2!pp! D2 | (E2 C2) D4 | !fermata!B,8 |] %36
w: all a-|way, * but|them he|can\- * not|take.|
V:3
!mf! e2 | f3 e e3 d |!>(! d2 d2!>)! z2!p! B2 | c2 B2 !tenuto!A3 G | !tenuto!A6!mf! d2 | %5
w: They|told me. He- ra-|cli- tus, They|told me you were|dead; They|
 e2 e2 !>!f3 f | e3 d =B2 c2 | !>!_d2 c2!>(! _B3 B | (B2!>)! =A6) | %9
w: brought me bit- ter|news to hear and|bit- ter tears to|shed. *|
 z2!p!!<(! !courtesy!_A2!<)!!>(! A4!>)! | z (.B.B.B) B2 B2 | z2 A2 A3 B |!<(! B2 B2 B2!<)!!f! B2 | %13
w: I wept,|as I re- mem- bered,|How of- ten|you and I Had|
 f2 =e2 _e2 d2 |!>(! c4!>)! B2!p! B2 | A2 G2 G3 A | !fermata!G6 ||!pp! B2 | A2 B2 G2 F2 | %19
w: tired the sun with|talk- ing and|sent him down the|sky.|And|now that thou art|
 G2 B2 z2 B2 | G2 B2 A3 G | B6 z .d | e2 .e.e (f3 e) | .e.d z2!>(! (f3 e)!>)! | d3 B c2 A2 | %25
w: ly- ing, my|dear old Ca- rian|guest, A|hand- ful of grey *|ash- es, long, *|long a- go at|
 (G4 A4) |!pp! F4 B3 A | (B2"^cresc.""^poco" G2) c2 B2 | A3 A (A2 G)F |!<(! (A2 G2 B2)!<)! A2 | %30
w: rest, *|Still are thy|voi\- * ces, Thy|night- in- gales, * a-|wake, * * For|
!f! [Gf]3 [G=e] [Ac]2 d2 | !>!!courtesy!_e6!>(!!>(! c2 | (c2!>)!!>)! B2) z2!p!!<(! B2 | %33
w: Death, he ta- keth|all a-|way, * but|
 A4!<)! z2!pp! F2 | (E2 A2) A4 | !fermata!G8 |] %36
w: them he|can\- * not|take.|
V:4
!mf! G,2 | B,3 G, A,3 F, |!>(! G,2 B,2!>)! z2!p! G,2 | C,2 E,2 !tenuto!F,3 C, | %4
w: They|told me, He- ra-|cli- tus, They|told me you were|
 !tenuto!F,6!mf! A,2 | G,2 A,2 !>!F,3 F, | F,3 F, E,2 E,2 | !>!F,2 F,2!>(! G,3 G,, | C,8!>)! | %9
w: dead; They|brought me bit- ter|news to hear and|bit- ter tears to|shed.|
 z2!p!!<(! B,,2!<)!!>(! B,4!>)! | z (.B,.A,.F,) A,2 G,2 | z2 B,,2 B,3 A, | %12
w: I wept,|as I re- mem- bered,|How of- ten|
!<(! G,2 G,2 D,2!<)!!f! D,2 | _D,2 C,2 F,2 !courtesy!_A,2 |!>(! G,4!>)! G,,2!p! G,,2 | %15
w: you and I Had|tired the sun with|talk- ing and|
 A,,2 B,,2 C,3 A,, | !fermata![E,,E,]6 ||!pp! E,2 | E,3 E, E,2 E,2 | E,2 E,2 z2 G,,2 | %20
w: sent him down the|sky.|And|now that thou art|ly- ing, my|
 C,2 G,,2 A,,3 C, | B,,6 z .A, | G,2 .A,.A, F,4 | .G,.G, z2!>(! C,4!>)! | G,,3 G,, A,,2 B,,2 | %25
w: dear old Ca- rian|guest, A|hand- ful of grey|ash- es, long,|long a- go at|
!pp! E,8- | E,8 | E,4 E,4 | E,8- |!<(! E,4!<)! D,4 |!f! _D,3 C, F,2 A,2 | !>!G,6!>(! G,2 | %32
w: rest,||* at|rest,|* For|Death, he ta- keth|all a-|
 G,4!>)! z2!p!!<(! G,,2 | A,,4!<)! z2!pp! B,,2 | C,4 B,,4 | !fermata!E,8 |] %36
w: way, but|them he|can- not|take.|

